X: 29432
T: Night Before Larry Was Stretched, The
R: slip jig
M: 9/8
K: Eminor
|:dcB BFB B2 d|cBA AFA cde|dcB BFB B2 d|cde efd cBA:|
|:d2f fge f2 e|d2 f fga bge|d2 f fge fga|b2 e efd cBA:|

